!!!OTL: "Hochzeitslied" BIN ALBEN E WERTHI TOCHTER G'SI
!!!ARE: Europa, Mitteleuropa, Schweiz
!!!SCT: Z1217
!!!YEM: Copyright 1995, estate of Helmut Schaffrath.
**kern
*ICvox
*Ivox
*M2/4
*k[b-e-a-d-g-]
*b-:
{8f
=1
8b-
16b-
16a
8b-
8cc
=2
8dd-
8b-
8a}
{16b-
16dd-
=3
8ee-
8dd-
8cc
16b-
16cc
=4
8dd-
8cc
8b-}
{16dd-
16cc
=5
8b-
16b-
16cc
8dd-
8b-
=6
16b-
16a
16g-
16a
4f}
=7
{4ff
4ee-
=8
4dd-
4a-}
=9
{8dd-
16dd-
16dd-
8ee-
16ee-
16ee-
=10
8ff
8ff
8ee-}
{16dd-
16ee-
=11
8ff
8dd-
8dd-
16cc
16dd-
=12
8ee-
8cc
8cc}
{16ee-
16cc
=13
8dd-
8b-
16b-
16cc
16dd-
16b-
=14
16cc
16dd-
16cc
16b-
8a}
{8f
=15
8.b-
16cc
8.dd-
16ee-
=16
16ff
16ee-
16ff
16gg-
8ff}
{8ee-
=17
16dd-
16cc
16b-
16dd-
16dd-
16cc
16b-
16a
=18
4b-
8r}
==
!!!AGN: Liebes - Lied, Hochzeits - Lied
!!!ONB: ESAC (Essen Associative Code) Database: ZUCCAL
!!!AMT: simple duple
!!!AIN: vox
!!!EED: Helmut Schaffrath
!!!EEV: 1.0
*-
